icons/linear-new-people-star-collection.svg

<svg xmlns="http://www.w3.org/2000/svg" width="32px" height="32px" viewBox="0 0 32 32" version="1.1">
    <title>linear-new-people-star-collection</title>
    <g id="linear-new-people-star-collection" stroke-width="1" fill-rule="evenodd">
        <path d="M14,18 C14.5522847,18 15,18.4477153 15,19 C15,19.5522847 14.5522847,20 14,20 L9,20 C7.34314575,20 6,21.3431458 6,23 L6,28 C6,28.5522847 5.55228475,29 5,29 C4.44771525,29 4,28.5522847 4,28 L4,23 C4,20.2385763 6.23857625,18 9,18 L14,18 Z M23.8946083,16.5531487 L25.438,19.643 L28.8548707,20.1569904 C29.631322,20.2736116 29.9632793,21.1870306 29.4855472,21.7732915 L29.4077691,21.8586364 L26.945,24.281 L27.5131174,27.6897747 C27.6424339,28.4660218 26.8725209,29.064951 26.1660062,28.787172 L26.0656108,28.7414498 L22.999,27.148 L19.9343892,28.7414498 C19.2360953,29.1043107 18.4285636,28.5571592 18.4744221,27.7993854 L18.4868826,27.6897747 L19.054,24.281 L16.5922309,21.8586364 C16.0326169,21.3079013 16.300952,20.3738101 17.0320409,20.180319 L17.1451293,20.1569904 L20.561,19.643 L22.1053917,16.5531487 C22.4737842,15.8156171 23.5262158,15.8156171 23.8946083,16.5531487 Z M23,19.237 L22.1186243,21.002419 C21.9730631,21.2938365 21.694683,21.4960915 21.3725477,21.5444754 L19.421,21.837 L20.8278276,23.2209516 C21.0309794,23.4208802 21.1377836,23.6964263 21.1254499,23.9774485 L21.1128035,24.0980173 L20.788,26.043 L22.5388993,25.1341366 C22.7918201,25.002709 23.0868843,24.9862806 23.3503409,25.0848512 L23.4611007,25.1341366 L25.211,26.043 L24.8871965,24.0980173 C24.8403583,23.816862 24.9159138,23.5311626 25.0910726,23.3110605 L25.1721724,23.2209516 L26.578,21.837 L24.6274523,21.5444754 C24.3455839,21.5021395 24.0972156,21.341996 23.9420131,21.1073947 L23.8813757,21.002419 L23,19.237 Z M16,2 C19.8659932,2 23,5.13400675 23,9 C23,12.8659932 19.8659932,16 16,16 C12.1340068,16 9,12.8659932 9,9 C9,5.13400675 12.1340068,2 16,2 Z M16,4 C13.2385763,4 11,6.23857625 11,9 C11,11.7614237 13.2385763,14 16,14 C18.7614237,14 21,11.7614237 21,9 C21,6.23857625 18.7614237,4 16,4 Z" id="&#24418;&#29366;" fill-rule="nonzero" />
    </g>
</svg>

<svg xmlns="http://www.w3.org/2000/svg" viewBox="0 0 32 32"><path fill="currentColor" d="M14 18a1 1 0 0 1 0 2H9a3 3 0 0 0-3 3v5a1 1 0 0 1-2 0v-5a5 5 0 0 1 5-5zm9.895-1.447 1.543 3.09 3.417.514a1 1 0 0 1 .63 1.616l-.077.086-2.463 2.422.568 3.409a1 1 0 0 1-1.347 1.097l-.1-.046-3.067-1.593-3.065 1.593a1 1 0 0 1-1.46-.942l.013-.11.567-3.408-2.462-2.422a1 1 0 0 1 .44-1.679l.113-.023 3.416-.514 1.544-3.09a1 1 0 0 1 1.79 0M23 19.237l-.881 1.765a1 1 0 0 1-.746.542l-1.952.293 1.407 1.384a1 1 0 0 1 .297.756l-.012.121-.325 1.945 1.75-.909a1 1 0 0 1 .812-.05l.111.05 1.75.909-.324-1.945a1 1 0 0 1 .204-.787l.081-.09 1.406-1.384-1.95-.293a1 1 0 0 1-.686-.437l-.06-.105zM16 2a7 7 0 1 1 0 14 7 7 0 0 1 0-14m0 2a5 5 0 1 0 0 10 5 5 0 0 0 0-10"/></svg>
